X:11880
T:No name
M:C|
L:1/8
R:reel
D:Ash Plant-tape
Z:transcribed by Jeff Lindqvist
K:Gm
GF|:DGGF GABc|d2ce dGGA|B2BG ABA=E|F2cF dFcF|
|DGGF GABc|d2ce dGGA|B2BG A2de|1 dcBA BGGF:|2 dcBA BG~G2||
|:GBdg bg~g2|af~f2 gdBA|GABd gfgb|agfa g4|
GBdg bg~g2|af~f2 gfd=e|~f2=eg fdcA|FAcA BG~G2:|
